Pods/ProtonCore-UIFoundations/libraries/UIFoundations/Sources/Assets.xcassets/Images/IconSet/ic-servers.imageset/ic-servers.svg

<svg width="24" height="24" viewBox="0 0 24 24" fill="none" xmlns="http://www.w3.org/2000/svg">
<path fill-rule="evenodd" clip-rule="evenodd" d="M4.5 3H19.5C20.3284 3 21 3.67157 21 4.5L21 8.25C21 9.07843 20.3284 9.75 19.5 9.75H4.5C3.67157 9.75 3 9.07843 3 8.25L3 4.5C3 3.67157 3.67157 3 4.5 3ZM1.5 4.5C1.5 2.84315 2.84315 1.5 4.5 1.5H19.5C21.1569 1.5 22.5 2.84315 22.5 4.5L22.5 8.25C22.5 9.90685 21.1569 11.25 19.5 11.25H4.5C2.84314 11.25 1.5 9.90685 1.5 8.25V4.5ZM4.5 14.25H19.5C20.3284 14.25 21 14.9216 21 15.75L21 19.5C21 20.3284 20.3284 21 19.5 21H4.5C3.67157 21 3 20.3284 3 19.5L3 15.75C3 14.9216 3.67157 14.25 4.5 14.25ZM1.5 15.75C1.5 14.0931 2.84315 12.75 4.5 12.75H19.5C21.1569 12.75 22.5 14.0931 22.5 15.75L22.5 19.5C22.5 21.1569 21.1569 22.5 19.5 22.5H4.5C2.84314 22.5 1.5 21.1569 1.5 19.5V15.75ZM19.5 6.75C19.5 7.16421 19.1642 7.5 18.75 7.5C18.3358 7.5 18 7.16421 18 6.75C18 6.33579 18.3358 6 18.75 6C19.1642 6 19.5 6.33579 19.5 6.75ZM18.75 18.75C19.1642 18.75 19.5 18.4142 19.5 18C19.5 17.5858 19.1642 17.25 18.75 17.25C18.3358 17.25 18 17.5858 18 18C18 18.4142 18.3358 18.75 18.75 18.75ZM16.5 6.75C16.5 7.16421 16.1642 7.5 15.75 7.5C15.3358 7.5 15 7.16421 15 6.75C15 6.33579 15.3358 6 15.75 6C16.1642 6 16.5 6.33579 16.5 6.75ZM15.75 18.75C16.1642 18.75 16.5 18.4142 16.5 18C16.5 17.5858 16.1642 17.25 15.75 17.25C15.3358 17.25 15 17.5858 15 18C15 18.4142 15.3358 18.75 15.75 18.75Z" fill="#0C0C14"/>
</svg>

<svg xmlns="http://www.w3.org/2000/svg" width="24" height="24" viewBox="0 0 24 24">
  <g class="ic-servers">
    <path fill-rule="evenodd" d="M4.5 3h15A1.5 1.5 0 0 1 21 4.5v3.75a1.5 1.5 0 0 1-1.5 1.5h-15A1.5 1.5 0 0 1 3 8.25V4.5A1.5 1.5 0 0 1 4.5 3Zm-3 1.5a3 3 0 0 1 3-3h15a3 3 0 0 1 3 3v3.75a3 3 0 0 1-3 3h-15a3 3 0 0 1-3-3V4.5Zm3 9.75h15a1.5 1.5 0 0 1 1.5 1.5v3.75a1.5 1.5 0 0 1-1.5 1.5h-15A1.5 1.5 0 0 1 3 19.5v-3.75a1.5 1.5 0 0 1 1.5-1.5Zm-3 1.5a3 3 0 0 1 3-3h15a3 3 0 0 1 3 3v3.75a3 3 0 0 1-3 3h-15a3 3 0 0 1-3-3v-3.75Zm18-9a.75.75 0 1 1-1.5 0 .75.75 0 0 1 1.5 0Zm-.75 12a.75.75 0 1 0 0-1.5.75.75 0 0 0 0 1.5Zm-2.25-12a.75.75 0 1 1-1.5 0 .75.75 0 0 1 1.5 0Zm-.75 12a.75.75 0 1 0 0-1.5.75.75 0 0 0 0 1.5Z" class="Icon"/>
  </g>
</svg>
